X:1
T:Mon amitié toujours
T:Jacques Arcadelt
T:Source : R.Eitner--- 60 chansons zu 4 Stimmen---Leipzig--- Breitkopf & Härtel---1899. Editor : André Vierendeels (01/12/17).
T:Mon amitié toujours
T:©
T:©
T:©
T:©
C:Jacques Arcadelt
Z:©
%%score [ 1 2 3 4 ]
L:1/8
Q:1/4=120
M:3/4
K:F
V:1 treble nm="Soprano" snm="S"
V:2 treble nm="Alto" snm="A"
V:3 treble-8 nm="Tenor" snm="T"
V:4 bass nm="Bass" snm="B"
V:1
 d2 d2 c2 | B4 A2 | B4 A2 |[M:4/4] G4 F2 f2 | f2 f2 edcB | A2 G2 G2 F2 | G4 z4 |[M:3/4] d2 d2 c2 | %8
w: Mon a- mi-|tié tou-|jours aug-|men- te, et|mon es- poir _ _ _|_ d'au- tant plus|croît,|que mon at-|
 B4 A2 | B4 A2 |[M:4/4] G4 F2 f2 | f2 f2 edcB | A2 G2 G2 F2 |[M:2/4] G4 ||[M:4/4] z2 G2 A2 B2 | %15
w: ten- t'est|vi- o-|len- te, qui|me con- som- * * *|* mant n'ap- pa|raît.-|L'ef- fet des|
 c4 z2 A2 | B2 c2 A4 | z2 A2 c2 d2 | c2 f2 ed d2- |[M:2/4] d2 c2 |[M:3/4] d4 z2 | B2 B2 A2 | %22
w: cieux m'est|si heu- reux,|en tout en-|droit qui se _ _|_ de-|plaît|pen- sant qu'un|
 G3 G G2 | B2 c4 |[M:4/4] F4 z2 B2 | A2 c2 c2 B2- | BA A4 G2 |[M:3/4] A4 z2 |: d2 d2 c2 | B4 A2 | %30
w: tel bien pour|at- ten-|dre, soit|per- du pour le|_ _ pre- ten-|dant,|quand les dieux|y veu-|
 B4 A2 |[M:4/4] G4 F2 f2 | f2 f2 edcB | A2 G2 G2 F2 | G8 :| %35
w: lent en-|ten- dre, heu-|reux est cel- * * *|* luy qui at-|tend.|
V:2
 B2 B2 A2 | G4 F2 | G4 F2 |[M:4/4] _E4 D2 B2 | B2 A2 G3 F | E2 C2 D2 D2 | B,4 z4 | %7
w: Mon a- mi-|tié tou-|jours aug-|men- te, et|mon es- poir _|_ d'au- tant plus|croît,-|
[M:3/4] B2 B2 A2 | G4 F2 | G4 F2 |[M:4/4] _E4 D2 B2 | B2 A2 G3 F | E2 C2 D2 D2 |[M:2/4] B,4 || %14
w: que mon at-|ten- t'est|vi- o-|len- te, qui|me con- som- *|* mant n'ap- pa-|raît|
[M:4/4] z2 E2 F2 D2 | F3 E/D/ E2 F2 | G2 G2 C4 | z2 F2 G2 A2 | A2 c2 cBAG |[M:2/4] A2 A2 | %20
w: L'ef- fet- des|cieux _ _ _ m'est|si heu- reux,|en tout en-|droit qui se _ _ _|_ de-|
[M:3/4] F4 z2 | G2 G2 F2 | _E3 E C2 |"^b" D2 E4 |[M:4/4] D4 z2 F2 | F2 G2 A2 G2 | E2 F4 ED | %27
w: plaît|pen- sant qu'un|tel bien pour|at- ten-|dre, soit|per- du pour le|pre- ten- * *|
[M:3/4]"^#" C4 z2 |: A2 A2 A2 | F4 F2 | D4 F2 |[M:4/4] _E4 D2 B2 | B2 A2 G3 F | E2 C2 D2 D2 | %34
w: dant,|quand les dieux|y veu-|lent en-|ten- dre, heu-|reux est cel- *|* luy qui at-|
 B,8 :| %35
w: tend.|
V:3
 g2 f2 f2 | d4 d2 | d4 d2 |[M:4/4] B2 c2 A2 d2 | d2 c2 cded | cBAG A2 A2 | G4 z4 | %7
w: Mon a- mi-|tié tou-|jours aug-|men- * te, et|mon es- poir _ _ _|d'au- * * * tant plus|croît,|
[M:3/4] g2 f2 f2 | d4 d2 | d4 d2 |[M:4/4] B2 c2 A2 d2 | d2 c2 cded | cBAG A2 A2 |[M:2/4] G4 || %14
w: que mon at-|ten- t'est|vi- o-|len- * te, qui|me con- som- * * *|mant- * * * n'ap- pa-|raît|
[M:4/4] z2 c2 c2 B2 | A4 c4 | d2 e2 f4 | z2 c2 e2 f2 | e2 a2 gfed |[M:2/4] e2 e2 |[M:3/4] d4 z2 | %21
w: L'ef- fet des|cieux m'est|si heu- reux,|en tout en-|droit qui se _ _ _|_ de-|plaît|
 d2 d2 d2 | B3 B G2 | F2 G2 A2 |[M:4/4] B4 z2 d2 | d2 e2 f2 d2- | d2 c2 d4 |[M:3/4] e4 z2 |: %28
w: pen- sant qu'un|tel bien pour|at- ten- *|dre, soit|per- du pour le|_ pre- ten-|dant,|
 f2 f2 e2 | d4 c2 | B4 d2 |[M:4/4] B2 c2 A2 d2 | d2 c2 cded | cBAG A2 A2 | G8 :| %35
w: quand les dieux|y veu-|lent en-|ten- * dre, heu-|eux est ce- * * *|lui _ _ _ qui at-|tend.|
V:4
 G,2 B,2 F,2 |"^#" G,4 D,2 | G,4 D,2 |[M:4/4]"^b" E,2 C,2 D,2 B,,2 | B,,2 D,2 C,4- | %5
w: Mon a- mi-|tié tou-|jours aug-|men- * te, et|mon es- poir|
"^b" C,2 E,2 D,2 D,2 | G,4 z4 |[M:3/4] G,2 B,2 F,2 |"^#" G,4 D,2 | G,4 D,2 | %10
w: _ d'au- tant plus|croît,|que mon at-|teni t'est|vi- o-|
[M:4/4]"^b" E,2 C,2 D,2 B,,2 | B,,2 F,2 C,4- | C,2 E,2 D,2 D,2 |[M:2/4] G,4 || %14
w: len- * te, qui|me con- som-|* mant n'ap- pa|raît|
[M:4/4] z2 C,2 F,2 G,2 | F,4 A,4 | G,2 C,2 F,4 | z2 F,2 E,2 D,2 | A,2 z B, C2 D2 |[M:2/4] A,2 A,2 | %20
w: L'ef- fet- des|cieux m'est|si heu- reux,|en tout en|droit qui se _|_ de-|
[M:3/4] D,4 z2 | G,2 G,2 D,2 |"^b""^b" E,3 E, E,2 | D,2 C,4 |[M:4/4] B,,4 z2 B,,2 | %25
w: plaît|pen- sant qu'un-|tel bien pour|at- ten|dre, soit|
 D,2 C,2 F,2 G,2 | A,4 B,4 |[M:3/4] A,4 z2 |: D,2 D,2 A,2 | B,4 F,2 | G,4 D,2 | %31
w: per- du pour le|pre- ten-|dant,|quand les dieux|y veu-|lent en|
[M:4/4]"^b" E,2 C,2 D,2 B,,2 | B,,2 F,2 C,4- |"^b" C,2 E,2 D,2 D,2 | G,8 :| %35
w: ten- * dre, heu-|reux est ce-|* lui qui at-|tend.|

